!!!!SEGMENT: pl-kk--kk-i-88--002-005_golabek-jakub--missa-2-osanna.krn
!!!cenid: 17xx:2579
!!!COM: Gołąbek, Jakub
!!!COM-rismID: pe30008748
!!!CDT: 1739-1789/03/30
!!!CNT: Polish
!!!OPR: Missa 2
!!!OTL: Osanna
!!!OMV: 005
!!!PDT:
!!!AGN: Sacred; Mass
!!!YEC: Copyright 2022 Narodowy Instytut Fryderyka Chopina (https://polishscores.org)
!!!YEM: License CC-BY-4.0 (https://creativecommons.org/licenses/by/4.0)
!!!SMS-siglum: PL-Kk
!!!SMS-shelfmark: Kk.I.88
!!!SMS-variant:
!!!SMS-altvar:
!!!SMS-shelfwork: 002-005 M
!!!NIFC-rismSourceID: 1001164072
!!!NIFC-rismChildID: 1001164081
!!!NIFC-islandoraID:
!!!URL-pdf-islandora: https://repozytorium.nifc.pl/islandora/object/pl-kk%3A3086/datastream/PDF/view
!!!URL-scan: https://polish.musicsources.pl/pl/lokalizacje/galeria/rekopisy/6148-missa/4 @EN{Scan on Polish Music Sources Website} @PL{Skany w portalu Dziedzictwo Muzyki Polskiej w otwartym dostępie}
!!!IIIF:
!!!ONB-nifc: UWAGA: C - f. 4r-5v; A - f. 12r-13v; T - f. 20r-21v; B - f. 28r-29v; B rip - f. 34r-35v. Proszę uwzględniać B rip. Części Mszy: 1. Kyrie, 2. Christe, 3. Et in terra, 4. Sanctus, 5. Osanna, 6. Benedictus, 7. Agnus Dei.
!!!AIN: 1 alto 1 bass 1 soprn 1 tenor
!!!key: F
**kern	**text	**dynam	**kern	**text	**dynam	**kern	**text	**dynam	**kern	**text	**kern	**text
*part5	*part5	*part5	*part4	*part4	*part4	*part3	*part3	*part3	*part2	*part2	*part1	*part1
*staff5	*staff5	*	*staff4	*staff4	*	*staff3	*staff3	*	*staff2	*staff2	*staff1	*staff1
*IGripn	*	*	*	*	*	*	*	*	*	*	*	*
*ICvox	*	*	*ICvox	*	*	*ICvox	*	*	*ICvox	*	*ICvox	*
*	*	*	*Ibass	*	*	*Itenor	*	*	*Ialto	*	*Isoprn	*
*I"Baſso E ripieno	*	*	*I"Baſso	*	*	*I"Tenore	*	*	*I"Alto	*	*I"Canto	*
*I'B rip	*	*	*I'B	*	*	*I'T	*	*	*I'A	*	*I'S	*
*clefF4	*	*	*clefF4	*	*	*clefC4	*	*	*clefC3	*	*clefC1	*
*k[b-]	*	*	*k[b-]	*	*	*k[b-]	*	*	*k[b-]	*	*k[b-]	*
*F:	*	*	*F:	*	*	*F:	*	*	*F:	*	*F:	*
*M3/2	*	*	*M3/2	*	*	*M3/2	*	*	*M3/2	*	*M3/2	*
=1	=1	=1	=1	=1	=1	=1	=1	=1	=1	=1	=1	=1
*2\right	*	*	*2\right	*	*	*2\right	*	*	*2\right	*	*2\right	*
2F\	O-	.	2F\	O-	.	2A\	O-	.	1.f	O-	1.cc	O-
4F\	-san-	.	4F\	-san-	.	4A\	-san-	.	.	.	.	.
4G\	.	.	4G\	.	.	4B-\	.	.	.	.	.	.
4A\	.	.	4A\	.	.	4c\	.	.	.	.	.	.
4F\	.	.	4F\	.	.	4A\	.	.	.	.	.	.
=2	=2	=2	=2	=2	=2	=2	=2	=2	=2	=2	=2	=2
2c\	.	.	2c\	.	.	2G/	.	.	2e\	-san-	2cc\	-san-
2C/	-na	.	2C/	-na	.	2G/	-na	.	4e\	-na	4cc\	-na
.	.	.	.	.	.	.	.	.	4f\	.	4dd\	.
2C/	O-	.	2C/	O-	.	2G/	O-	.	4g\	O-	4ee\	O-
.	.	.	.	.	.	.	.	.	4f\	.	4dd\	.
=3	=3	=3	=3	=3	=3	=3	=3	=3	=3	=3	=3	=3
2C/	-san-	.	2C/	-san-	.	2B-\	-san-	.	2e\	-san-	2cc\	-san-
4C/	-na	.	4C/	-na	.	2B-\	-na	.	2e\	-na	2cc\	-na
4D/	.	.	4D/	.	.	.	.	.	.	.	.	.
4E/	in	.	4E/	in	.	4B-\	in	.	4e\	in	2cc\	O-
4C/	ex-	.	4C/	ex-	.	4B-\	ex-	.	4e\	ex-	.	.
=4	=4	=4	=4	=4	=4	=4	=4	=4	=4	=4	=4	=4
!	!	!	!	!	!	!	!	!	!	!	!LO:TX:t=P:problem:fragment oznaczony znakiem repetycji	!
2F\	-cel-	.	2F\	-cel-	.	2A\	-cel-	.	2f\	-cel-	2cc\yy	-san-
2F\	-sis	.	2F\	-sis	.	2A\	-sis	.	2f\	-sis	2cc\yy	-na
2A\	O-	.	2A\	O-	.	2c\	O-	.	2f\	O-	2cc\yy	0-
=5	=5	=5	=5	=5	=5	=5	=5	=5	=5	=5	=5	=5
4A\	-san-	.	4A\	-san-	.	4c\	-san-	.	1.f	-san-	1.ee-X	-san-
4G\	.	.	4G\	.	.	4B-\	.	.	.	.	.	.
4F\	.	.	4F\	.	.	4A\	.	.	.	.	.	.
4G\	.	.	4G\	.	.	4B-\	.	.	.	.	.	.
4A\	.	.	4A\	.	.	4c\	.	.	.	.	.	.
4F\	.	.	4F\	.	.	4A\	.	.	.	.	.	.
!	!	!	!LO:LB:g=original	!	!	!LO:LB:g=original	!	!	!	!	!	!
=6	=6	=6	=6	=6	=6	=6	=6	=6	=6	=6	=6	=6
2B-\	-na	.	2B-\	-na	.	2d\	-na	.	2f\	-na	2dd\	-na,
2r	.	.	2r	.	.	2r	.	.	2r	.	2r	.
2Bn\	O-	.	2Bn\	O-	.	2d\	O-	.	2g\	O-	4dd\	O-
.	.	.	.	.	.	.	.	.	.	.	4een\	.
!	!	!	!	!	!	!	!	!	!LO:LB:g=original	!	!	!
=7	=7	=7	=7	=7	=7	=7	=7	=7	=7	=7	=7	=7
!LO:SIC:v:s=4Bn\	!	!	!LO:SIC:v:s=4Bn\	!	!	!	!	!	!	!	!	!
4B-\	-san-	.	4B-\	-san-	.	4d\	-san-	.	1.g	-san-	1.ff	-san-
4A\	.	.	4A\	.	.	4c\	.	.	.	.	.	.
4G\	.	.	4G\	.	.	4Bn\	.	.	.	.	.	.
4A\	.	.	4A\	.	.	4c\	.	.	.	.	.	.
!LO:SIC:v:s=4B\	!	!	!LO:SIC:v:s=4B\	!	!	!	!	!	!	!	!	!
4B-\	.	.	4B-\	.	.	4d\	.	.	.	.	.	.
4G\	.	.	4G\	.	.	4B\	.	.	.	.	.	.
!LO:LB:g=original	!	!	!	!	!	!	!	!	!	!	!LO:LB:g=original	!
=8	=8	=8	=8	=8	=8	=8	=8	=8	=8	=8	=8	=8
2c\	-na	.	2c\	-na	.	2c\	-na	.	2g\	-na	2ee\	-na
2r	.	.	2r	.	.	2r	.	.	2r	.	2r	.
2C/	O-	.	2C/	O-	.	2G/	O-	.	2g\	O-	2cc\	O-
=9	=9	=9	=9	=9	=9	=9	=9	=9	=9	=9	=9	=9
2C/	-san-	.	2C/	-san-	.	1c	-san-	.	2e\	-san-	1b-X	-san-
4C/	-na	.	4C/	-na	.	.	.	.	4e\	.	.	.
4D/	.	.	4D/	.	.	.	.	.	4f\	.	.	.
4E/	in	.	4E/	in	.	2c\	-na	.	4g\	-na	2b-\	-na
4C/	ex-	.	4C/	ex-	.	.	.	.	4e\	.	.	.
=10	=10	=10	=10	=10	=10	=10	=10	=10	=10	=10	=10	=10
2F\	-cel-	.	2F\	-cel-	.	2c\	in	.	2a\	in	2a\	in
2G\	.	.	2G\	.	.	2B-\	.	.	2g\	.	2b-\	.
2A\	.	.	2A\	.	.	2A\	ex-	.	2f\	ex-	2cc\	ex-
=11	=11	=11	=11	=11	=11	=11	=11	=11	=11	=11	=11	=11
2B-\	.	.	2B-\	.	.	2G/	-cel-	.	2g\	-cel-	1.cc	-cel-
2c\	.	.	2c\	.	.	2A/	.	.	2f\	.	.	.
2C/	.	.	2C/	.	.	2G/	.	.	2e\	.	.	.
!	!	!	!LO:LB:g=original	!	!	!LO:LB:g=original	!	!	!	!	!	!
=12	=12	=12	=12	=12	=12	=12	=12	=12	=12	=12	=12	=12
2F\	-sis	.	2F\	-sis	.	2A/	-sis	.	2f\	-sis	2cc\	-sis
2r	.	.	2r	.	.	2r	.	.	2r	.	2r	.
!	!	!LO:DY:a:rj	!	!	!	!	!	!LO:DY:a:t=p&colon;	!	!	!	!
2A\	O-	p	2A\	O-	.	2c\	O-	p	2f\	O-	4cc\	O-
.	.	.	.	.	.	.	.	.	.	.	4dd\	.
=13	=13	=13	=13	=13	=13	=13	=13	=13	=13	=13	=13	=13
!	!	!	!	!	!LO:DY:a:rj	!	!	!	!	!	!	!
4A\	-san-	.	4A\	-san-	p	4c\	-san-	.	1.f	-san-	1.ee-X	-san-
4G\	.	.	4G\	.	.	4B-\	.	.	.	.	.	.
4F\	.	.	4F\	.	.	4A\	.	.	.	.	.	.
4G\	.	.	4G\	.	.	4B-\	.	.	.	.	.	.
4A\	.	.	4A\	.	.	4c\	.	.	.	.	.	.
4F\	.	.	4F\	.	.	4A\	.	.	.	.	.	.
=14	=14	=14	=14	=14	=14	=14	=14	=14	=14	=14	=14	=14
2B-\	-na	.	2B-\	-na	.	2d\	-na	.	2f\	-na	2dd\	-na
2r	.	.	2r	.	.	2r	.	.	2r	.	2r	.
2Bn\	o-	.	2Bn\	O-	.	2d\	O-	.	2g\	O-	4dd\	O-
.	.	.	.	.	.	.	.	.	.	.	4een\	.
!	!	!	!	!	!	!	!	!	!LO:LB:g=original	!	!	!
=15	=15	=15	=15	=15	=15	=15	=15	=15	=15	=15	=15	=15
!LO:SIC:v:s=4Bn\	!	!	!LO:SIC:v:s=4Bn\	!	!	!	!	!	!	!	!	!
4B-\	-san-	.	4B-\	-san-	.	4d\	-san-	.	1.g	-san-	1.ff	-san-
4A\	.	.	4A\	.	.	4c\	.	.	.	.	.	.
4G\	.	.	4G\	.	.	4Bn\	.	.	.	.	.	.
4A\	.	.	4A\	.	.	4c\	.	.	.	.	.	.
!LO:SIC:v:s=4B\	!	!	!LO:SIC:v:s=4Bn\	!	!	!	!	!	!	!	!	!
4B-\	.	.	4B-\	.	.	4d\	.	.	.	.	.	.
4G\	.	.	4G\	.	.	4B\	.	.	.	.	.	.
!LO:LB:g=original	!	!	!	!	!	!	!	!	!	!	!LO:LB:g=original	!
=16	=16	=16	=16	=16	=16	=16	=16	=16	=16	=16	=16	=16
2c\	-na	.	2c\	-na	.	2c\	-na	.	2g\	-na	2ee\	-na
2r	.	.	2r	.	.	2r	.	.	2r	.	2r	.
!	!	!LO:DY:a:t=fo	!	!	!	!	!	!	!	!	!	!
2C/	O-	f	2C/	O-	.	2G/	O-	.	2g\	O-	2cc\	O-
!	!	!	!	!	!	!LO:LB:g=original	!	!	!	!	!	!
=17	=17	=17	=17	=17	=17	=17	=17	=17	=17	=17	=17	=17
!	!	!	!	!	!LO:DY:a:rj:t=for	!	!	!	!	!	!	!
2C/	-san-	.	2C/	-san-	f	1c	-san-	.	2e\	-san-	1b-X	-san-
4C/	.	.	4C/	.	.	.	.	.	4e\	.	.	.
4D/	.	.	4D/	.	.	.	.	.	4f\	.	.	.
4E/	-na	.	4E/	-na	.	2c\	-na	.	4g\	-na	2b-\	-na
4C/	.	.	4C/	.	.	.	.	.	4e\	.	.	.
=18	=18	=18	=18	=18	=18	=18	=18	=18	=18	=18	=18	=18
2F\	in	.	2F\	in	.	2c\	in	.	2a\	in	2a\	in
2G\	.	.	2G\	.	.	2B-\	.	.	2g\	.	2b-\	.
2A\	ex-	.	2A\	ex-	.	2A\	ex-	.	2f\	ex-	2cc\	ex-
!	!	!	!LO:LB:g=original	!	!	!	!	!	!	!	!	!
=19	=19	=19	=19	=19	=19	=19	=19	=19	=19	=19	=19	=19
2B-\	-cel-	.	2B-\	-cel-	.	2G/	-cel-	.	2g\	-cel-	2dd\	-cel-
2c\	.	.	2c\	.	.	2A/	.	.	2f\	.	1cc	.
2C/	.	.	2C/	.	.	2G/	.	.	2e\	.	.	.
=20	=20	=20	=20	=20	=20	=20	=20	=20	=20	=20	=20	=20
1F	-sis	.	1F	-sis	.	1A	-sis	.	1.f	-sis	1.cc	-sis
2r	.	.	2r	.	.	2r	.	.	.	.	.	.
==	==	==	==;;	==	==	==;;	==	==	==;;	==	==;;	==
*-	*-	*-	*-	*-	*-	*-	*-	*-	*-	*-	*-	*-
!!!system-decoration: [(s1,s2,s3,s4)]s5
!!!RDF**kern: > = above
!!!RDF**kern: < = below
!!!ENC: Berenika Jozajtis
!!!EED: Katarzyna Serwa
!!!END: 2024-02-28
!!!EEV: 2024-05-02
